assets/img/braze_icons/globe-02.svg

<svg fill="none" height="24" viewBox="0 0 24 24" width="24" xmlns="http://www.w3.org/2000/svg"><path clip-rule="evenodd" d="m12 23c6.0751 0 11-4.9249 11-11 0-6.07513-4.9249-11-11-11-6.07513 0-11 4.92487-11 11 0 6.0751 4.92487 11 11 11zm2.2743-19.71017c.9635 1.44823 1.6873 3.03898 2.1465 4.71017h3.6437c-1.1453-2.30456-3.2493-4.04858-5.7902-4.71017zm-2.2743.26097c1.0397 1.33947 1.828 2.84712 2.3356 4.4492h-4.67121c.50761-1.60208 1.29591-3.10973 2.33561-4.4492zm2.9998 8.4492c-.015-.6737-.0775-1.3419-.1857-2h-5.62822c-.10815.6581-.17063 1.3263-.18565 2 .01502.6737.0775 1.3419.18565 2h5.62822c.1082-.6581.1707-1.3263.1857-2zm-.6642 4h-4.67121c.50761 1.6021 1.29591 3.1097 2.33561 4.4492 1.0397-1.3395 1.828-2.8471 2.3356-4.4492zm-7.1732-2c-.09381-.6528-.14832-1.3137-.16218-1.9792-.00029-.0139-.00029-.0277 0-.0416.01386-.6655.06837-1.3264.16218-1.9792h-3.93938c-.14596.6432-.22302 1.3126-.22302 2s.07706 1.3568.22302 2zm-3.22688 2h3.64366c.45923 1.6712 1.18301 3.2619 2.14653 4.7102-2.5409-.6616-4.64492-2.4056-5.79019-4.7102zm12.48528 0h3.6437c-1.1453 2.3046-3.2493 4.0486-5.7902 4.7102.9635-1.4483 1.6873-3.039 2.1465-4.7102zm4.3562-2h-3.9394c.0938-.6528.1483-1.3137.1622-1.9792.0003-.0139.0003-.0277 0-.0416-.0139-.6655-.0684-1.3264-.1622-1.9792h3.9394c.1459.6432.223 1.3126.223 2s-.0771 1.3568-.223 2zm-11.05129-10.71017c-.96352 1.44823-1.68731 3.03898-2.14653 4.71017h-3.64366c1.14527-2.30456 3.24929-4.04858 5.79019-4.71017z" fill="#801ed7" fill-rule="evenodd"/></svg>

<svg width="24" height="24" viewBox="0 0 24 24" fill="none" xmlns="http://www.w3.org/2000/svg">
<path fill-rule="evenodd" clip-rule="evenodd" d="M12 23C18.0751 23 23 18.0751 23 12C23 5.92487 18.0751 1 12 1C5.92487 1 1 5.92487 1 12C1 18.0751 5.92487 23 12 23ZM14.2743 3.28983C15.2378 4.73806 15.9616 6.32881 16.4208 8H20.0645C18.9192 5.69544 16.8152 3.95142 14.2743 3.28983ZM12 3.5508C13.0397 4.89027 13.828 6.39792 14.3356 8H9.66439C10.172 6.39792 10.9603 4.89027 12 3.5508ZM14.9998 12C14.9848 11.3263 14.9223 10.6581 14.8141 10H9.18588C9.07773 10.6581 9.01525 11.3263 9.00023 12C9.01525 12.6737 9.07773 13.3419 9.18588 14H14.8141C14.9223 13.3419 14.9848 12.6737 14.9998 12ZM14.3356 16H9.66439C10.172 17.6021 10.9603 19.1097 12 20.4492C13.0397 19.1097 13.828 17.6021 14.3356 16ZM7.1624 14C7.06859 13.3472 7.01408 12.6863 7.00022 12.0208C6.99993 12.0069 6.99993 11.9931 7.00022 11.9792C7.01408 11.3137 7.06859 10.6528 7.1624 10H3.22302C3.07706 10.6432 3 11.3126 3 12C3 12.6874 3.07706 13.3568 3.22302 14H7.1624ZM3.93552 16H7.57918C8.03841 17.6712 8.76219 19.2619 9.72571 20.7102C7.18481 20.0486 5.08079 18.3046 3.93552 16ZM16.4208 16H20.0645C18.9192 18.3046 16.8152 20.0486 14.2743 20.7102C15.2378 19.2619 15.9616 17.6712 16.4208 16ZM20.777 14H16.8376C16.9314 13.3472 16.9859 12.6863 16.9998 12.0208C17.0001 12.0069 17.0001 11.9931 16.9998 11.9792C16.9859 11.3137 16.9314 10.6528 16.8376 10H20.777C20.9229 10.6432 21 11.3126 21 12C21 12.6874 20.9229 13.3568 20.777 14ZM9.72571 3.28983C8.76219 4.73806 8.0384 6.32881 7.57918 8H3.93552C5.08079 5.69544 7.18481 3.95142 9.72571 3.28983Z" fill="#801ED7"/>
</svg>
